src/actions/24/format-border-set-external.svg

<svg xmlns="http://www.w3.org/2000/svg" viewBox="0 0 24 24">
    <defs id="defs3051">
        <style id="current-color-scheme" type="text/css">
            .ColorScheme-Text{color:#050505;opacity:.7}
        </style>
    </defs>
    <path d="M12 3v8H4v1h8v8h1v-8h8v-1h-8V3h-1z" class="ColorScheme-Text" style="fill:currentColor;fill-opacity:.1;stroke:none"/>
    <path d="M5 4v7h7V4H5zm8 0v7h7V4h-7zm-8 8v7h7v-7H5zm8 0v7h7v-7h-7z" class="ColorScheme-Text" style="fill:currentColor;fill-opacity:.5;stroke:none"/>
    <path d="M4 3v17h17V3H4zm1 1h15v15H5V4z" class="ColorScheme-Text" style="fill:currentColor;fill-opacity:1;stroke:none"/>
</svg>

<svg xmlns="http://www.w3.org/2000/svg" viewBox="0 0 24 24">
  <defs id="defs3051">
    <style type="text/css" id="current-color-scheme">
      .ColorScheme-Text {
        color:#363636;
      }
      </style>
  </defs>
 <path 
     style="fill:currentColor;fill-opacity:0.1;stroke:none" 
     d="M 12 3 L 12 11 L 4 11 L 4 12 L 12 12 L 12 20 L 13 20 L 13 12 L 21 12 L 21 11 L 13 11 L 13 3 L 12 3 z "
     class="ColorScheme-Text"
     />
 <path 
     style="fill:currentColor;fill-opacity:0.5;stroke:none" 
     d="M 5 4 L 5 11 L 12 11 L 12 4 L 5 4 z M 13 4 L 13 11 L 20 11 L 20 4 L 13 4 z M 5 12 L 5 19 L 12 19 L 12 12 L 5 12 z M 13 12 L 13 19 L 20 19 L 20 12 L 13 12 z "
     class="ColorScheme-Text"
     />
 <path 
     style="fill:currentColor;fill-opacity:1.0;stroke:none" 
     d="M 4 3 L 4 4 L 4 19 L 4 20 L 5 20 L 20 20 L 21 20 L 21 19 L 21 4 L 21 3 L 20 3 L 5 3 L 4 3 z M 5 4 L 20 4 L 20 19 L 5 19 L 5 4 z "
     class="ColorScheme-Text"
     />
</svg>
